cssgg/details-more.svg

<svg
  width="24"
  height="24"
  viewBox="0 0 24 24"
  fill="none"
  xmlns="http://www.w3.org/2000/svg"
>
  <path
    d="M2 8C2 7.44772 2.44772 7 3 7H21C21.5523 7 22 7.44772 22 8C22 8.55228 21.5523 9 21 9H3C2.44772 9 2 8.55228 2 8Z"
    fill="currentColor"
  />
  <path
    d="M2 12C2 11.4477 2.44772 11 3 11H21C21.5523 11 22 11.4477 22 12C22 12.5523 21.5523 13 21 13H3C2.44772 13 2 12.5523 2 12Z"
    fill="currentColor"
  />
  <path
    d="M3 15C2.44772 15 2 15.4477 2 16C2 16.5523 2.44772 17 3 17H15C15.5523 17 16 16.5523 16 16C16 15.4477 15.5523 15 15 15H3Z"
    fill="currentColor"
  />
</svg>

<svg viewBox="0 0 24 24" xmlns="http://www.w3.org/2000/svg"><g><path d="M2 8c0-.56.44-1 1-1h18c.55 0 1 .44 1 1 0 .55-.45 1-1 1H3c-.56 0-1-.45-1-1Z"/><path d="M2 12c0-.56.44-1 1-1h18c.55 0 1 .44 1 1 0 .55-.45 1-1 1H3c-.56 0-1-.45-1-1Z"/><path d="M3 15c-.56 0-1 .44-1 1 0 .55.44 1 1 1h12c.55 0 1-.45 1-1 0-.56-.45-1-1-1H3Z"/></g></svg>
